components/Icon/svg/server-access.svg

<svg width="18" height="20" viewBox="0 0 18 20" fill="none" xmlns="http://www.w3.org/2000/svg">
<path fill-rule="evenodd" clip-rule="evenodd" d="M16.1053 1H1.89474C1.37152 1 0.947368 1.44772 0.947368 2V4C0.947368 4.55228 1.37152 5 1.89474 5H16.1053C16.6285 5 17.0526 4.55228 17.0526 4V2C17.0526 1.44772 16.6285 1 16.1053 1ZM1.89474 0C0.848303 0 0 0.89543 0 2V4C0 5.10457 0.848303 6 1.89474 6H16.1053C17.1517 6 18 5.10457 18 4V2C18 0.895431 17.1517 0 16.1053 0H1.89474Z" fill="currentColor"/>
<path fill-rule="evenodd" clip-rule="evenodd" d="M16 3C16 3.55228 15.5523 4 15 4H13C12.4477 4 12 3.55228 12 3C12 2.44772 12.4477 2 13 2H15C15.5523 2 16 2.44772 16 3Z" fill="currentColor"/>
<path fill-rule="evenodd" clip-rule="evenodd" d="M16 17C16 16.4477 15.5523 16 15 16H13C12.4477 16 12 16.4477 12 17C12 17.5523 12.4477 18 13 18H15C15.5523 18 16 17.5523 16 17Z" fill="currentColor"/>
<path fill-rule="evenodd" clip-rule="evenodd" d="M16.1053 19H1.89474C1.37152 19 0.947368 18.5523 0.947368 18V16C0.947368 15.4477 1.37152 15 1.89474 15H16.1053C16.6285 15 17.0526 15.4477 17.0526 16V18C17.0526 18.5523 16.6285 19 16.1053 19ZM1.89474 20C0.848303 20 0 19.1046 0 18V16C0 14.8954 0.848303 14 1.89474 14H16.1053C17.1517 14 18 14.8954 18 16V18C18 19.1046 17.1517 20 16.1053 20H1.89474Z" fill="currentColor"/>
<path fill-rule="evenodd" clip-rule="evenodd" d="M16 17C16 16.4477 15.5523 16 15 16H13C12.4477 16 12 16.4477 12 17C12 17.5523 12.4477 18 13 18H15C15.5523 18 16 17.5523 16 17Z" fill="currentColor"/>
<path d="M11 17C11 16.4477 10.5523 16 10 16C9.44772 16 9 16.4477 9 17C9 17.5523 9.44772 18 10 18C10.5523 18 11 17.5523 11 17Z" fill="currentColor"/>
<path d="M8 17C8 16.4477 7.55228 16 7 16C6.44772 16 6 16.4477 6 17C6 17.5523 6.44772 18 7 18C7.55228 18 8 17.5523 8 17Z" fill="currentColor"/>
<path fill-rule="evenodd" clip-rule="evenodd" d="M16 10C16 10.5523 15.5523 11 15 11H13C12.4477 11 12 10.5523 12 10C12 9.44772 12.4477 9 13 9H15C15.5523 9 16 9.44772 16 10Z" fill="currentColor"/>
<path fill-rule="evenodd" clip-rule="evenodd" d="M16.1053 8H1.89474C1.37152 8 0.947368 8.44772 0.947368 9V11C0.947368 11.5523 1.37152 12 1.89474 12H16.1053C16.6285 12 17.0526 11.5523 17.0526 11V9C17.0526 8.44772 16.6285 8 16.1053 8ZM1.89474 7C0.848303 7 0 7.89543 0 9V11C0 12.1046 0.848303 13 1.89474 13H16.1053C17.1517 13 18 12.1046 18 11V9C18 7.89543 17.1517 7 16.1053 7H1.89474Z" fill="currentColor"/>
<path fill-rule="evenodd" clip-rule="evenodd" d="M16 10C16 10.5523 15.5523 11 15 11H13C12.4477 11 12 10.5523 12 10C12 9.44772 12.4477 9 13 9H15C15.5523 9 16 9.44772 16 10Z" fill="currentColor"/>
<path d="M11 10C11 10.5523 10.5523 11 10 11C9.44772 11 9 10.5523 9 10C9 9.44772 9.44772 9 10 9C10.5523 9 11 9.44772 11 10Z" fill="currentColor"/>
<path d="M11 3C11 3.55228 10.5523 4 10 4C9.44772 4 9 3.55228 9 3C9 2.44772 9.44772 2 10 2C10.5523 2 11 2.44772 11 3Z" fill="currentColor"/>
<path d="M8 10C8 10.5523 7.55228 11 7 11C6.44772 11 6 10.5523 6 10C6 9.44772 6.44772 9 7 9C7.55228 9 8 9.44772 8 10Z" fill="currentColor"/>
<path d="M8 3C8 3.55228 7.55228 4 7 4C6.44772 4 6 3.55228 6 3C6 2.44772 6.44772 2 7 2C7.55228 2 8 2.44772 8 3Z" fill="currentColor"/>
<path fill-rule="evenodd" clip-rule="evenodd" d="M9 8V6H10V8H9Z" fill="currentColor"/>
<path fill-rule="evenodd" clip-rule="evenodd" d="M9 14V12H10V14H9Z" fill="currentColor"/>
</svg>

<svg xmlns="http://www.w3.org/2000/svg" width="18" height="20" viewBox="0 0 18 20">
  <path fill="currentColor" fill-rule="evenodd" d="M16.105 1H1.895c-.523 0-.948.448-.948 1v2c0 .552.425 1 .948 1h14.21c.523 0 .948-.448.948-1V2c0-.552-.425-1-.948-1ZM1.895 0C.848 0 0 .895 0 2v2c0 1.105.848 2 1.895 2h14.21C17.152 6 18 5.105 18 4V2c0-1.105-.848-2-1.895-2H1.895Z"/>
  <path fill="currentColor" fill-rule="evenodd" d="M16 3a1 1 0 0 1-1 1h-2a1 1 0 1 1 0-2h2a1 1 0 0 1 1 1Zm0 14a1 1 0 0 0-1-1h-2a1 1 0 1 0 0 2h2a1 1 0 0 0 1-1Z"/>
  <path fill="currentColor" fill-rule="evenodd" d="M16.105 19H1.895c-.523 0-.948-.448-.948-1v-2c0-.552.425-1 .948-1h14.21c.523 0 .948.448.948 1v2c0 .552-.425 1-.948 1Zm-14.21 1C.848 20 0 19.105 0 18v-2c0-1.105.848-2 1.895-2h14.21c1.047 0 1.895.895 1.895 2v2c0 1.105-.848 2-1.895 2H1.895Z"/>
  <path fill="currentColor" fill-rule="evenodd" d="M16 17a1 1 0 0 0-1-1h-2a1 1 0 1 0 0 2h2a1 1 0 0 0 1-1Z"/>
  <path fill="currentColor" d="M11 17a1 1 0 1 0-2 0 1 1 0 0 0 2 0Zm-3 0a1 1 0 1 0-2 0 1 1 0 0 0 2 0Z"/>
  <path fill="currentColor" fill-rule="evenodd" d="M16.105 8H1.895c-.523 0-.948.448-.948 1v2c0 .552.425 1 .948 1h14.21c.523 0 .948-.448.948-1V9c0-.552-.425-1-.948-1ZM1.895 7C.848 7 0 7.895 0 9v2c0 1.105.848 2 1.895 2h14.21C17.152 13 18 12.105 18 11V9c0-1.105-.848-2-1.895-2H1.895Z"/>
  <path fill="currentColor" fill-rule="evenodd" d="M16 10a1 1 0 0 1-1 1h-2a1 1 0 1 1 0-2h2a1 1 0 0 1 1 1Z"/>
  <path fill="currentColor" d="M11 10a1 1 0 1 1-2 0 1 1 0 0 1 2 0Zm0-7a1 1 0 1 1-2 0 1 1 0 0 1 2 0Zm-3 7a1 1 0 1 1-2 0 1 1 0 0 1 2 0Zm0-7a1 1 0 1 1-2 0 1 1 0 0 1 2 0Z"/>
  <path fill="currentColor" fill-rule="evenodd" d="M9 8V6h1v2H9Zm0 6v-2h1v2H9Z"/>
</svg>
